packages/dnb-eufemia/assets/icons/deleted_invoice_medium.svg

<svg width="24" height="24" viewBox="0 0 24 24" fill="none" xmlns="http://www.w3.org/2000/svg">
<path d="M4.5 3.5V2C4.5 1.44772 4.94772 1 5.5 1H15.5362C15.8304 1 16.1096 1.12951 16.2996 1.35406L21.2634 7.22037C21.4162 7.40092 21.5 7.62979 21.5 7.86631V22C21.5 22.5523 21.0523 23 20.5 23H5.5C4.94772 23 4.5 22.5523 4.5 22V20.5M1 8.75H3.45773M11 8.75H8.58535M3.45773 8.75H2.15385L2.96616 16.5166C3.00263 16.9358 3.40117 17.25 3.84235 17.25H8.20074C8.64192 17.25 9.04046 16.9358 9.07693 16.5166L9.9956 8.75H8.58535M3.45773 8.75V7.48333C3.45773 7.03878 3.76065 6.75 4.22696 6.75H7.81612C8.28243 6.75 8.58535 7.03878 8.58535 7.48333V8.75M3.45773 8.75H8.58535" stroke="black" stroke-width="1.5" stroke-linecap="round" stroke-linejoin="round"/>
</svg>

<svg width="24" height="24" viewBox="0 0 24 24" fill="none" xmlns="http://www.w3.org/2000/svg"><path d="M4.5 3.5V2a1 1 0 0 1 1-1h10.036a1 1 0 0 1 .764.354l4.963 5.866a1 1 0 0 1 .237.646V22a1 1 0 0 1-1 1h-15a1 1 0 0 1-1-1v-1.5M1 8.75h2.458m7.542 0H8.585m-5.127 0H2.154l.812 7.767c.037.419.435.733.876.733h4.359c.44 0 .84-.314.876-.733l.919-7.767h-1.41m-5.128 0V7.483c0-.444.303-.733.769-.733h3.59c.465 0 .768.289.768.733V8.75m-5.127 0h5.127" stroke="#000" stroke-width="1.5" stroke-linecap="round" stroke-linejoin="round"/></svg>
